_icons/SVG/060-poliwag.svg

<svg xmlns="http://www.w3.org/2000/svg" width="32" height="32"><path fill="#F7F7F7" d="M31.534 13.011c-1.661 5.267-10.286 17.727-15.553 16.065-5.267-1.661-5.182-16.815-3.521-22.082s7.278-8.19 12.545-6.529 8.191 7.279 6.529 12.546z"/><path fill="#EDEEEE" d="M31.534 13.011c-1.661 5.267-10.286 17.727-15.553 16.065L25.005.466c5.268 1.661 8.191 7.278 6.529 12.545z"/><ellipse transform="rotate(-61.241 23.5 29.001)" fill="#529CCF" cx="23.5" cy="29" rx="2.757" ry="3.694"/><ellipse transform="rotate(-28.759 8.5 29.002)" fill="#5CA3D5" cx="8.5" cy="29" rx="3.694" ry="2.757"/><path fill="#65A9DC" d="M16 3v27c7.732 0 14-4.994 14-12.521S23.732 3 16 3z"/><path fill="#71B1E1" d="M2 17.479C2 25.006 8.268 30 16 30V3C8.268 3 2 9.952 2 17.479z"/><path fill="#FFF" d="M16 15c-4.418 0-8 3.134-8 7s3.582 7 8 7V15z"/><path fill="#F7F7F7" d="M24 22c0-3.866-3.582-7-8-7v14c4.418 0 8-3.134 8-7z"/><path fill="#373F3F" d="M16 20.537v.75c-1.06.012-1.762.433-1.762.714s.702.7 1.762.713v.75c-1.434-.013-2.512-.636-2.512-1.463S14.566 20.55 16 20.537zM11.307 22c0 1.999 2.102 3.624 4.693 3.644v-.75c-2.178-.018-3.943-1.308-3.943-2.894 0-1.587 1.766-2.877 3.943-2.895v-.75c-2.592.02-4.693 1.645-4.693 3.645zM16 27.077c-3.381-.02-6.125-2.289-6.125-5.077s2.744-5.058 6.125-5.078v-.75c-3.795.021-6.875 2.626-6.875 5.828 0 3.201 3.08 5.806 6.875 5.827v-.75z"/><path fill="#2B3332" d="M16.046 21.284l-.046.002v-.75c.016 0 .03-.003.046-.003a.375.375 0 010 .751zm3.647-.375c0-1.435-1.603-2.558-3.647-2.558-.016 0-.03.003-.046.004v.75c.016 0 .03-.003.046-.003 1.57 0 2.897.828 2.897 1.808s-1.327 1.807-2.897 1.807L16 22.715v.75c.016 0 .03.003.046.003 2.045-.002 3.647-1.125 3.647-2.559zm-3.272 6.545a.375.375 0 00-.375-.375L16 27.077v.75l.046.002a.375.375 0 00.375-.375zm-.375-11.284l-.046.002v.75l.046-.002c2.801 0 5.079 1.79 5.079 3.989s-2.278 3.988-5.079 3.988c-.016 0-.03-.003-.046-.003v.75c.016 0 .03.004.046.004 3.214 0 5.829-2.126 5.829-4.738 0-2.614-2.615-4.74-5.829-4.74z"/><path fill="#FCD8DE" d="M16 13c-1.657 0-3 1.119-3 2.5s1.343 2.5 3 2.5v-5z"/><path fill="#FBCFD6" d="M19 15.5c0-1.381-1.343-2.5-3-2.5v5c1.657 0 3-1.119 3-2.5z"/><path fill="#373F3F" d="M16 14c-.828 0-1.5.448-1.5 1s.672 1 1.5 1v-2z"/><path fill="#2B3332" d="M17.5 15c0-.552-.672-1-1.5-1v2c.828 0 1.5-.448 1.5-1z"/><ellipse transform="rotate(-45.025 22.501 10.5)" fill="#F7F7F7" cx="22.5" cy="10.5" rx="3.292" ry="3.696"/><path fill="#2B3332" d="M19.579 12.078s1.691 1.689 4.126.374 1.716-3.53 1.716-3.53c-1.064-1.725-3.235-2.417-4.848-1.545-1.614.871-2.059 2.976-.994 4.701z"/><ellipse transform="rotate(-44.976 9.5 10.5)" fill="#FFF" cx="9.5" cy="10.5" rx="3.696" ry="3.292"/><path fill="#373F3F" d="M12.421 12.078s-1.691 1.689-4.126.374-1.716-3.53-1.716-3.53c1.064-1.725 3.235-2.417 4.848-1.545s2.059 2.976.994 4.701z"/><circle fill="#F7F7F7" cx="22" cy="9" r="1"/><circle fill="#FFF" cx="10" cy="9" r="1"/></svg>

<?xml version="1.0" encoding="utf-8"?>
<!-- Generator: Adobe Illustrator 23.0.6, SVG Export Plug-In . SVG Version: 6.00 Build 0)  -->
<svg version="1.1" xmlns="http://www.w3.org/2000/svg" xmlns:xlink="http://www.w3.org/1999/xlink" x="0px" y="0px" width="32px"
	 height="32px" viewBox="0 0 32 32" enable-background="new 0 0 32 32" xml:space="preserve">
<g id="icons">
	<g>
		<g>
			<path fill="#F7F7F7" d="M31.534,13.011c-1.661,5.267-10.286,17.727-15.553,16.065c-5.267-1.661-5.182-16.815-3.521-22.082
				s7.278-8.19,12.545-6.529S33.196,7.744,31.534,13.011z"/>
			<path fill="#EDEEEE" d="M31.534,13.011c-1.661,5.267-10.286,17.727-15.553,16.065l9.024-28.61
				C30.273,2.127,33.196,7.744,31.534,13.011z"/>
		</g>
		
			<ellipse transform="matrix(0.4811 -0.8766 0.8766 0.4811 -13.2294 35.6481)" fill="#529CCF" cx="23.5" cy="29" rx="2.757" ry="3.694"/>
		
			<ellipse transform="matrix(0.8766 -0.4811 0.4811 0.8766 -12.9045 7.667)" fill="#5CA3D5" cx="8.5" cy="29" rx="3.694" ry="2.757"/>
		<path fill="#65A9DC" d="M16,3v27c7.732,0,14-4.994,14-12.521S23.732,3,16,3z"/>
		<path fill="#71B1E1" d="M2,17.479C2,25.006,8.268,30,16,30V3C8.268,3,2,9.952,2,17.479z"/>
		<g>
			<path fill="#FFFFFF" d="M16,15c-4.418,0-8,3.134-8,7c0,3.866,3.582,7,8,7V15z"/>
			<path fill="#F7F7F7" d="M24,22c0-3.866-3.582-7-8-7v14C20.418,29,24,25.866,24,22z"/>
			<path fill="#373F3F" d="M16,20.537v0.75c-1.06,0.012-1.762,0.433-1.762,0.714S14.94,22.701,16,22.714v0.75
				c-1.434-0.013-2.512-0.636-2.512-1.463S14.566,20.55,16,20.537z M11.307,22c0,1.999,2.102,3.624,4.693,3.644v-0.75
				c-2.178-0.018-3.943-1.308-3.943-2.894c0-1.587,1.766-2.877,3.943-2.895v-0.75C13.408,18.375,11.307,20,11.307,22z M16,27.077
				C12.619,27.057,9.875,24.788,9.875,22s2.744-5.058,6.125-5.078v-0.75C12.205,16.193,9.125,18.798,9.125,22
				c0,3.201,3.08,5.806,6.875,5.827V27.077z"/>
			<path fill="#2B3332" d="M16.046,21.284c-0.016,0-0.03,0.002-0.046,0.002v-0.75c0.016,0,0.03-0.003,0.046-0.003
				c0.207,0,0.375,0.168,0.375,0.375S16.253,21.284,16.046,21.284z M19.693,20.909c0-1.435-1.603-2.558-3.647-2.558
				c-0.016,0-0.03,0.003-0.046,0.004v0.75c0.016,0,0.03-0.003,0.046-0.003c1.57,0,2.897,0.828,2.897,1.808s-1.327,1.807-2.897,1.807
				c-0.016,0-0.03-0.002-0.046-0.002v0.75c0.016,0,0.03,0.003,0.046,0.003C18.091,23.466,19.693,22.343,19.693,20.909z
				 M16.421,27.454c0-0.207-0.168-0.375-0.375-0.375c-0.016,0-0.03-0.002-0.046-0.002v0.75c0.015,0,0.03,0.002,0.046,0.002
				C16.253,27.829,16.421,27.661,16.421,27.454z M16.046,16.17c-0.016,0-0.03,0.002-0.046,0.002v0.75
				c0.015,0,0.03-0.002,0.046-0.002c2.801,0,5.079,1.79,5.079,3.989s-2.278,3.988-5.079,3.988c-0.016,0-0.03-0.003-0.046-0.003v0.75
				c0.016,0,0.03,0.004,0.046,0.004c3.214,0,5.829-2.126,5.829-4.738C21.875,18.296,19.26,16.17,16.046,16.17z"/>
		</g>
		<g>
			<path fill="#FCD8DE" d="M16,13c-1.657,0-3,1.119-3,2.5c0,1.381,1.343,2.5,3,2.5V13z"/>
			<path fill="#FBCFD6" d="M19,15.5c0-1.381-1.343-2.5-3-2.5v5C17.657,18,19,16.881,19,15.5z"/>
			<path fill="#373F3F" d="M16,14c-0.828,0-1.5,0.448-1.5,1c0,0.552,0.672,1,1.5,1V14z"/>
			<path fill="#2B3332" d="M17.5,15c0-0.552-0.672-1-1.5-1v2C16.828,16,17.5,15.552,17.5,15z"/>
		</g>
		<g>
			
				<ellipse transform="matrix(0.7068 -0.7074 0.7074 0.7068 -0.8306 18.9959)" fill="#F7F7F7" cx="22.5" cy="10.5" rx="3.292" ry="3.696"/>
			<path fill="#2B3332" d="M19.579,12.078c0,0,1.691,1.689,4.126,0.374s1.716-3.53,1.716-3.53c-1.064-1.725-3.235-2.417-4.848-1.545
				C18.959,8.248,18.514,10.353,19.579,12.078z"/>
		</g>
		<g>
			<g>
				
					<ellipse transform="matrix(0.7074 -0.7068 0.7068 0.7074 -4.6418 9.7864)" fill="#FFFFFF" cx="9.5" cy="10.5" rx="3.696" ry="3.292"/>
				<path fill="#373F3F" d="M12.421,12.078c0,0-1.691,1.689-4.126,0.374s-1.716-3.53-1.716-3.53
					c1.064-1.725,3.235-2.417,4.848-1.545S13.486,10.353,12.421,12.078z"/>
			</g>
		</g>
		<circle fill="#F7F7F7" cx="22" cy="9" r="1"/>
		<circle fill="#FFFFFF" cx="10" cy="9" r="1"/>
	</g>
</g>
<g id="labels">
</g>
</svg>
